X:11
T:Poussiganga
R:waynu
O:Bolivia?
Z:id:hn-waynu-11
M:2/4
L:1/8
Q:1/4=90
K:Em
b3 a | gf eg | B3/gf/e | Be/BA/G/F/ | E/e/B/e/ Be :|
|: g/gf/ g/fe/ | B3/gf/e | Be/BA/G/F/ |1 E/e/B/e/ Be :|
[2 E3/gf/e |: Be/BA/G/F/ |1 E3/gf/e :|2 E/e/B/e/ Be ||

